img/benefits/group-3.svg

<svg width="28" height="30" viewBox="0 0 28 30" fill="none" xmlns="http://www.w3.org/2000/svg">
<path d="M1.96487 22.8151C1.44168 22.5381 1.11588 22.278 0.9875 22.0348C0.859114 21.7916 0.794922 21.4587 0.794922 21.036V8.42676L13.7784 15.4478V29.1699L1.96487 22.8151Z" fill="#0037FC"/>
<path d="M26.3528 22.8151L14.5381 29.1699V15.4478L27.5082 8.42676V21.036C27.5082 21.4587 27.444 21.7916 27.3157 22.0348C27.1873 22.278 26.8663 22.5381 26.3528 22.8151Z" fill="#0037FC"/>
<path d="M14.1591 14.8132L0.96875 7.69395L7.29282 4.20605L20.5635 11.3409L14.1591 14.8132Z" fill="#0037FC"/>
<path d="M21.3142 10.9472L8.05371 3.78656L13.3529 0.868249C13.891 0.562146 14.4239 0.562146 14.9514 0.868249L27.3493 7.69379L21.3142 10.9472Z" fill="#0037FC"/>
</svg>

<svg width="28" height="30" fill="none" xmlns="http://www.w3.org/2000/svg"><path d="M1.965 22.815c-.523-.277-.85-.537-.978-.78s-.192-.576-.192-.999V8.426l12.983 7.022V29.17L1.965 22.815zm24.388 0L14.538 29.17V15.448l12.97-7.021v12.609c0 .423-.064.756-.192.999-.129.243-.45.503-.963.78zM14.16 14.813L.968 7.693l6.324-3.487 13.27 7.135-6.404 3.472zm7.154-3.866l-13.26-7.16L13.353.868c.538-.306 1.07-.306 1.598 0L27.35 7.694l-6.035 3.253z" fill="#0037FC"/></svg>
